logos/kpmp.svg

<svg width="110" height="47" viewBox="0 0 110 47" fill="none"
    xmlns="http://www.w3.org/2000/svg">
    <g clip-path="url(#clip0_1749_825)">
        <mask id="mask0_1749_825" style="mask-type:luminance" maskUnits="userSpaceOnUse" x="0" y="-1" width="111" height="48">
            <path d="M110.03 -0.0579834H0.0300293V46.942H110.03V-0.0579834Z" fill="white"/>
        </mask>
        <g mask="url(#mask0_1749_825)">
            <path fill-rule="evenodd" clip-rule="evenodd" d="M34.844 3.70911C35.244 3.70911 35.444 4.20911 35.444 5.30911V22.9091L41.444 5.20911C41.744 4.20911 42.044 3.70911 42.344 3.70911H44.944C45.144 3.70911 45.344 3.90911 45.344 4.20911C45.344 4.50911 45.244 4.80911 45.144 5.20911L39.044 22.6091C38.944 23.1091 38.944 23.3091 38.944 23.4091C38.944 23.6091 38.944 23.8091 39.044 24.0091L45.544 41.2091C45.744 41.6091 45.744 41.9091 45.844 42.3091C45.844 42.6091 45.744 42.8091 45.544 42.8091H43.044C42.844 42.8091 42.644 42.7091 42.544 42.5091C42.344 42.1091 42.144 41.8091 42.044 41.3091L35.344 24.0091V41.3091C35.344 42.3091 35.144 42.8091 34.744 42.8091H32.344C31.944 42.8091 31.844 42.3091 31.844 41.2091V5.30911C31.844 4.20911 32.044 3.70911 32.344 3.70911H34.844ZM55.144 3.70911C55.644 3.70911 56.144 3.70911 56.544 3.70911C56.944 3.70911 57.444 3.80911 57.844 3.90911C58.244 4.00911 58.744 4.10911 59.144 4.30911C59.544 4.50911 59.944 4.70911 60.244 5.00911C60.644 5.30911 61.044 5.70911 61.244 6.10911C61.544 6.60911 61.844 7.10911 62.044 7.70911C62.344 8.40911 62.544 9.10911 62.744 9.90911C62.944 10.8091 63.044 11.8091 63.144 12.7091C63.244 13.8091 63.344 15.0091 63.344 16.2091C63.344 17.6091 63.244 19.0091 63.144 20.4091C63.044 21.6091 62.844 22.7091 62.544 23.7091C62.344 24.5091 62.044 25.2091 61.644 25.9091C61.344 26.4091 60.944 26.9091 60.444 27.4091C60.044 27.8091 59.544 28.1091 59.044 28.2091C58.544 28.4091 58.044 28.5091 57.544 28.6091C56.944 28.7091 56.444 28.7091 55.844 28.7091H52.444C52.344 28.7091 52.244 28.9091 52.244 29.2091V41.5091C52.244 42.4091 52.044 42.8091 51.644 42.8091H49.144C48.744 42.8091 48.644 42.4091 48.644 41.5091V5.00911C48.644 4.70911 48.644 4.30911 48.744 4.00911C48.944 3.80911 49.144 3.70911 49.244 3.70911H55.144ZM71.344 3.70911C71.844 3.70911 72.144 4.20911 72.244 5.10911L76.444 32.6091C76.444 32.7091 76.544 32.7091 76.544 32.7091C76.544 32.7091 76.644 32.7091 76.644 32.6091L80.844 5.20911C81.044 4.20911 81.344 3.70911 81.744 3.70911H84.544C84.844 3.70911 85.044 4.20911 85.044 5.30911L86.044 41.2091V41.4091C86.044 42.3091 85.844 42.8091 85.544 42.8091H83.744C83.344 42.8091 83.244 42.3091 83.144 41.2091L82.444 11.4091C82.444 11.3091 82.344 11.3091 82.344 11.3091L77.944 41.3091C77.844 42.3091 77.544 42.7091 77.144 42.7091H76.544H75.944C75.544 42.7091 75.344 42.2091 75.144 41.2091L70.844 11.6091C70.844 11.5091 70.844 11.5091 70.744 11.6091V11.7091L70.044 41.2091C70.044 42.3091 69.844 42.8091 69.544 42.8091H67.644C67.344 42.8091 67.144 42.3091 67.144 41.4091V41.2091L68.144 5.30911C68.144 4.20911 68.344 3.70911 68.644 3.70911L71.344 3.70911ZM97.344 3.70911C97.844 3.70911 98.344 3.70911 98.744 3.70911C99.144 3.70911 99.644 3.80911 100.044 3.90911C100.444 4.00911 100.944 4.10911 101.344 4.30911C101.744 4.50911 102.144 4.70911 102.444 5.00911C102.844 5.30911 103.244 5.70911 103.444 6.10911C103.744 6.60911 104.044 7.10911 104.244 7.70911C104.544 8.40911 104.744 9.10911 104.944 9.90911C105.144 10.8091 105.244 11.8091 105.344 12.7091C105.444 13.8091 105.544 15.0091 105.544 16.2091C105.544 17.6091 105.444 19.0091 105.344 20.4091C105.244 21.5091 105.044 22.5091 104.744 23.6091C104.544 24.4091 104.244 25.1091 103.844 25.8091C103.544 26.3091 103.144 26.8091 102.644 27.3091C102.244 27.7091 101.744 28.0091 101.244 28.1091C100.744 28.3091 100.244 28.4091 99.744 28.5091C99.144 28.7091 98.544 28.7091 98.044 28.7091H94.644C94.544 28.7091 94.444 28.9091 94.444 29.2091V41.5091C94.444 42.4091 94.244 42.8091 93.844 42.8091H91.344C90.944 42.8091 90.844 42.4091 90.844 41.5091V5.00911C90.844 4.70911 90.844 4.30911 90.944 4.00911C91.144 3.80911 91.244 3.70911 91.444 3.70911H97.344ZM55.044 7.20911H52.544C52.444 7.20911 52.344 7.40911 52.344 7.70911V24.8091C52.344 25.1091 52.444 25.2091 52.544 25.2091H55.544C56.144 25.2091 56.644 25.2091 57.244 25.0091C57.644 24.9091 58.144 24.6091 58.444 24.3091C58.844 23.9091 59.144 23.4091 59.244 22.8091C59.444 22.0091 59.644 21.1091 59.744 20.2091C59.844 18.9091 59.944 17.6091 59.944 16.3091C59.944 14.9091 59.844 13.4091 59.644 12.0091C59.544 11.1091 59.344 10.2091 59.044 9.30911C58.844 8.70911 58.444 8.20911 57.944 7.90911C57.544 7.60911 57.144 7.40911 56.644 7.30911C56.044 7.20911 55.544 7.20911 55.044 7.20911ZM97.144 7.20911H94.644C94.544 7.20911 94.444 7.40911 94.444 7.70911V24.8091C94.444 25.1091 94.544 25.2091 94.644 25.2091H97.644C98.244 25.2091 98.744 25.2091 99.344 25.0091C99.744 24.9091 100.244 24.6091 100.544 24.3091C100.944 23.9091 101.244 23.4091 101.344 22.8091C101.544 22.0091 101.744 21.1091 101.844 20.2091C101.944 18.9091 102.044 17.6091 102.044 16.3091C102.044 14.9091 101.944 13.4091 101.744 12.0091C101.644 11.1091 101.444 10.2091 101.144 9.30911C100.944 8.70911 100.544 8.20911 100.044 7.90911C99.644 7.60911 99.244 7.40911 98.744 7.30911C98.244 7.20911 97.744 7.20911 97.144 7.20911Z" fill="white"/>
            <path d="M2.81104 24.9751C2.81104 20.5751 3.91104 12.7751 8.31104 7.87506C10.111 5.87506 15.511 1.77506 20.811 4.47506C29.311 8.77506 26.911 16.1751 23.311 20.0751C21.211 22.3751 19.911 25.2751 22.111 28.4751C24.311 31.6751 27.311 37.5751 20.911 41.1751C15.711 44.0751 10.611 41.8751 8.81104 39.8751C5.11104 35.7751 2.91104 30.4751 2.81104 24.9751Z" stroke="white" stroke-width="2"/>
            <path d="M21.011 25.3751C19.711 25.1751 16.511 24.9751 11.911 24.1751C8.81104 23.5751 5.81104 22.7751 2.81104 21.8751M21.811 28.0751C20.811 28.8751 19.511 29.4751 18.311 29.8751C12.211 32.0751 6.21104 31.1751 3.51104 29.8751M4.91104 13.4751C8.11104 13.4751 11.311 14.2751 14.311 15.6751C18.611 17.7751 20.811 19.9751 21.811 22.0751M10.611 5.97507C13.811 6.47507 16.811 7.87507 19.311 10.0751C22.611 13.1751 24.311 15.5751 24.911 18.0751M24.011 32.1751C23.111 33.5751 21.811 34.7751 20.311 35.5751C15.011 38.4751 9.61104 38.1751 6.51104 36.8751M22.311 40.1751C17.811 35.0751 16.911 29.4751 17.111 24.1751C17.311 18.7751 21.411 13.2751 25.511 8.47507M17.811 42.3751C13.411 36.2751 11.611 29.8751 11.611 24.5751C11.711 19.6751 15.311 11.4751 21.811 5.17507M17.611 3.57507C9.51103 9.47507 6.01104 17.8751 6.01104 24.9751C6.01104 30.0751 8.51104 36.1751 12.911 42.2751" stroke="white" stroke-width="2"/>
        </g>
    </g>
    <defs>
        <clipPath id="clip0_1749_825">
            <rect width="110" height="47" fill="white"/>
        </clipPath>
    </defs>
</svg>

<svg xmlns="http://www.w3.org/2000/svg" width="110" height="47" fill="none" viewBox="0 0 110 47">
    <g clip-path="url(#a)">
        <mask id="b" width="111" height="48" x="0" y="-1" maskUnits="userSpaceOnUse" style="mask-type:luminance">
            <path fill="currentColor" d="M110.03-.058H.03v47h110z"/>
        </mask>
        <g mask="url(#b)">
            <path fill="currentColor" fill-rule="evenodd" d="M34.844 3.71c.4 0 .6.5.6 1.6v17.6l6-17.7q.45-1.5.9-1.5h2.6c.2 0 .4.2.4.5s-.1.6-.2 1l-6.1 17.4c-.1.5-.1.7-.1.8 0 .2 0 .4.1.6l6.5 17.2c.2.4.2.7.3 1.1 0 .3-.1.5-.3.5h-2.5c-.2 0-.4-.1-.5-.3-.2-.4-.4-.7-.5-1.2l-6.7-17.3v17.3q0 1.5-.6 1.5h-2.4c-.4 0-.5-.5-.5-1.6V5.31c0-1.1.2-1.6.5-1.6zm20.3 0h1.4c.4 0 .9.1 1.3.2s.9.2 1.3.4.8.4 1.1.7c.4.3.8.7 1 1.1.3.5.6 1 .8 1.6.3.7.5 1.4.7 2.2.2.9.3 1.9.4 2.8.1 1.1.2 2.3.2 3.5 0 1.4-.1 2.8-.2 4.2q-.15 1.8-.6 3.3c-.2.8-.5 1.5-.9 2.2q-.45.75-1.2 1.5c-.4.4-.9.7-1.4.8-.5.2-1 .3-1.5.4-.6.1-1.1.1-1.7.1h-3.4c-.1 0-.2.2-.2.5v12.3c0 .9-.2 1.3-.6 1.3h-2.5c-.4 0-.5-.4-.5-1.3V5.01c0-.3 0-.7.1-1 .2-.2.4-.3.5-.3zm16.2 0c.5 0 .8.5.9 1.4l4.2 27.5c0 .1.1.1.1.1s.1 0 .1-.1l4.2-27.4q.3-1.5.9-1.5h2.8c.3 0 .5.5.5 1.6l1 35.9v.2c0 .9-.2 1.4-.5 1.4h-1.8c-.4 0-.5-.5-.6-1.6l-.7-29.8c0-.1-.1-.1-.1-.1l-4.4 30c-.1 1-.4 1.4-.8 1.4h-1.2c-.4 0-.6-.5-.8-1.5l-4.3-29.6c0-.1 0-.1-.1 0v.1l-.7 29.5c0 1.1-.2 1.6-.5 1.6h-1.9c-.3 0-.5-.5-.5-1.4v-.2l1-35.9c0-1.1.2-1.6.5-1.6zm26 0h1.4c.4 0 .9.1 1.3.2s.9.2 1.3.4.8.4 1.1.7c.4.3.8.7 1 1.1.3.5.6 1 .8 1.6.3.7.5 1.4.7 2.2.2.9.3 1.9.4 2.8.1 1.1.2 2.3.2 3.5 0 1.4-.1 2.8-.2 4.2-.1 1.1-.3 2.1-.6 3.2-.2.8-.5 1.5-.9 2.2q-.45.75-1.2 1.5c-.4.4-.9.7-1.4.8-.5.2-1 .3-1.5.4-.6.2-1.2.2-1.7.2h-3.4c-.1 0-.2.2-.2.5v12.3c0 .9-.2 1.3-.6 1.3h-2.5c-.4 0-.5-.4-.5-1.3V5.01c0-.3 0-.7.1-1 .2-.2.3-.3.5-.3zm-42.3 3.5h-2.5c-.1 0-.2.2-.2.5v17.1c0 .3.1.4.2.4h3c.6 0 1.1 0 1.7-.2.4-.1.9-.4 1.2-.7.4-.4.7-.9.8-1.5.2-.8.4-1.7.5-2.6.1-1.3.2-2.6.2-3.9 0-1.4-.1-2.9-.3-4.3q-.15-1.35-.6-2.7c-.2-.6-.6-1.1-1.1-1.4-.4-.3-.8-.5-1.3-.6-.6-.1-1.1-.1-1.6-.1m42.1 0h-2.5c-.1 0-.2.2-.2.5v17.1c0 .3.1.4.2.4h3c.6 0 1.1 0 1.7-.2.4-.1.9-.4 1.2-.7.4-.4.7-.9.8-1.5.2-.8.4-1.7.5-2.6.1-1.3.2-2.6.2-3.9 0-1.4-.1-2.9-.3-4.3q-.15-1.35-.6-2.7c-.2-.6-.6-1.1-1.1-1.4-.4-.3-.8-.5-1.3-.6s-1-.1-1.6-.1" clip-rule="evenodd"/>
            <path stroke="currentColor" stroke-width="2" d="M2.811 24.975c0-4.4 1.1-12.2 5.5-17.1 1.8-2 7.2-6.1 12.5-3.4 8.5 4.3 6.1 11.7 2.5 15.6-2.1 2.3-3.4 5.2-1.2 8.4s5.2 9.1-1.2 12.7c-5.2 2.9-10.3.7-12.1-1.3-3.7-4.1-5.9-9.4-6-14.9Z"/>
            <path stroke="currentColor" stroke-width="2" d="M21.011 25.375c-1.3-.2-4.5-.4-9.1-1.2-3.1-.6-6.1-1.4-9.1-2.3m19 6.2c-1 .8-2.3 1.4-3.5 1.8-6.1 2.2-12.1 1.3-14.8 0m1.4-16.4c3.2 0 6.4.8 9.4 2.2 4.3 2.1 6.5 4.3 7.5 6.4m-11.2-16.1c3.2.5 6.2 1.9 8.7 4.1 3.3 3.1 5 5.5 5.6 8m-.9 14.1c-.9 1.4-2.2 2.6-3.7 3.4-5.3 2.9-10.7 2.6-13.8 1.3m15.8 3.3c-4.5-5.1-5.4-10.7-5.2-16 .2-5.4 4.3-10.9 8.4-15.7m-7.7 33.9c-4.4-6.1-6.2-12.5-6.2-17.8.1-4.9 3.7-13.1 10.2-19.4m-4.2-1.6c-8.1 5.9-11.6 14.3-11.6 21.4 0 5.1 2.5 11.2 6.9 17.3"/>
        </g>
    </g>
    <defs>
        <clipPath id="a">
            <path fill="currentColor" d="M0 0h110v47H0z"/>
        </clipPath>
    </defs>
</svg>
